img/abstract-figure-right-bottom.svg

<svg width="320" height="400" viewBox="0 0 320 400" fill="none" xmlns="http://www.w3.org/2000/svg">
<g opacity="0.1">
<path d="M319.809 79.9521H239.857L239.857 -0.000112534H319.809V79.9521Z" fill="#C3B214"/>
<path d="M159.905 239.857L79.9524 239.857L79.9524 159.904H159.905L159.905 239.857Z" fill="#C3B214"/>
<path d="M239.857 159.904L159.905 159.904V79.9521L239.857 79.9521L239.857 159.904Z" fill="#C3B214"/>
<path d="M79.9524 319.809H0.000131607V239.857L79.9524 239.857V319.809Z" fill="#C3B214"/>
</g>
<g opacity="0.1">
<path d="M319.809 159.906H239.857L239.857 79.9535H319.809V159.906Z" fill="url(#paint0_linear_525_8)"/>
<path d="M79.9524 399.762H0.000131607V319.81L79.9524 319.81V399.762Z" fill="url(#paint1_linear_525_8)"/>
<path d="M0.000131607 159.906H79.9524V79.9535H0.000131607V159.906Z" fill="url(#paint2_linear_525_8)"/>
<path d="M239.857 399.762H319.809V319.81H239.857V399.762Z" fill="url(#paint3_linear_525_8)"/>
</g>
<defs>
<linearGradient id="paint0_linear_525_8" x1="159.905" y1="399.762" x2="159.905" y2="79.9535" gradientUnits="userSpaceOnUse">
<stop stop-color="#C3B214"/>
<stop offset="1" stop-color="#C3B214"/>
</linearGradient>
<linearGradient id="paint1_linear_525_8" x1="159.905" y1="399.762" x2="159.905" y2="79.9535" gradientUnits="userSpaceOnUse">
<stop stop-color="#C3B214"/>
<stop offset="1" stop-color="#C3B214"/>
</linearGradient>
<linearGradient id="paint2_linear_525_8" x1="159.905" y1="399.762" x2="159.905" y2="79.9535" gradientUnits="userSpaceOnUse">
<stop stop-color="#C3B214"/>
<stop offset="1" stop-color="#C3B214"/>
</linearGradient>
<linearGradient id="paint3_linear_525_8" x1="159.905" y1="399.762" x2="159.905" y2="79.9535" gradientUnits="userSpaceOnUse">
<stop stop-color="#C3B214"/>
<stop offset="1" stop-color="#C3B214"/>
</linearGradient>
</defs>
</svg>

<svg width="320" height="400" fill="none" xmlns="http://www.w3.org/2000/svg"><g opacity=".1" fill="#C3B214"><path d="M319.809 79.952h-79.952V0h79.952v79.952zM159.905 239.857H79.952v-79.953h79.953v79.953zM239.857 159.904h-79.952V79.952h79.952v79.952zM79.952 319.809H0v-79.952h79.952v79.952z"/></g><g opacity=".1"><path d="M319.809 159.906h-79.952V79.953h79.952v79.953z" fill="url(#a)"/><path d="M79.952 399.762H0V319.81h79.952v79.952z" fill="url(#b)"/><path d="M0 159.906h79.952V79.953H0v79.953z" fill="url(#c)"/><path d="M239.857 399.762h79.952V319.81h-79.952v79.952z" fill="url(#d)"/></g><defs><linearGradient id="a" x1="159.905" y1="399.762" x2="159.905" y2="79.954" gradientUnits="userSpaceOnUse"><stop stop-color="#C3B214"/><stop offset="1" stop-color="#C3B214"/></linearGradient><linearGradient id="b" x1="159.905" y1="399.762" x2="159.905" y2="79.954" gradientUnits="userSpaceOnUse"><stop stop-color="#C3B214"/><stop offset="1" stop-color="#C3B214"/></linearGradient><linearGradient id="c" x1="159.905" y1="399.762" x2="159.905" y2="79.954" gradientUnits="userSpaceOnUse"><stop stop-color="#C3B214"/><stop offset="1" stop-color="#C3B214"/></linearGradient><linearGradient id="d" x1="159.905" y1="399.762" x2="159.905" y2="79.954" gradientUnits="userSpaceOnUse"><stop stop-color="#C3B214"/><stop offset="1" stop-color="#C3B214"/></linearGradient></defs></svg>
